X: 147
T:Muiñeira da Padarnela
M:6/8
L:1/8
Q:200
C:Evaristo González
R:Muiñeira
K:F
AFD |: AFD AFD | {B,}C2 {G}C {G}CEF | {c}GAG F2E |
{c}FED AFD | AFD AFD | {B,}C2 {G}C {G}CEF | GAG F2{c}"~"E |1
D3 AFD :|2 D3 {G}DEF |: {G}FEF {c}GFE | {c}FED {G}DEF |
{c}FEF {c}GFE | {B,}F3 {c}FGA | {c}AGA BAG| {c} AGF {c}FGA |
{c}AGA F2{c}"~"E |1 D3 {G}DEF :|2 D3 ||

